docs/public/images/logos/infinite.svg

<svg xmlns="http://www.w3.org/2000/svg" width="320" height="83" fill="none"><path fill="#fff" d="M78.78 41.5c0-20.589-16.691-37.28-37.28-37.28-20.589 0-37.28 16.691-37.28 37.28 0 20.589 16.691 37.28 37.28 37.28V83C18.58 83 0 64.42 0 41.5S18.58 0 41.5 0 83 18.58 83 41.5 64.42 83 41.5 83v-4.22c20.589 0 37.28-16.691 37.28-37.28Z"/><path fill="#fff" d="M66.66 53.458V29.542C66.66 15.557 55.396 4.22 41.5 4.22S16.34 15.557 16.34 29.542v23.916c0 13.985 11.264 25.322 25.16 25.322V83c-15.958 0-28.942-12.817-29.344-28.78l-.01-.762V29.542C12.146 13.227 25.288 0 41.5 0s29.354 13.227 29.354 29.542v23.916C70.854 69.773 57.712 83 41.5 83v-4.22c13.896 0 25.16-11.337 25.16-25.322Z"/><path fill="#fff" d="M66.758 52.754V30.246C66.758 15.872 55.45 4.22 41.5 4.22S16.242 15.872 16.242 30.246v22.508c0 14.374 11.308 26.026 25.258 26.026V83c-16.212 0-29.354-13.541-29.354-30.246V30.246C12.146 13.542 25.288 0 41.5 0s29.354 13.541 29.354 30.246v22.508C70.854 69.46 57.712 83 41.5 83v-4.22c13.95 0 25.258-11.652 25.258-26.026Z"/><path fill="#fff" d="M54.658 66.119V16.88c0-6.992-5.438-12.66-12.146-12.66-6.708 0-12.146 5.668-12.146 12.66v49.24c0 6.992 5.438 12.66 12.146 12.66V83c-8.944 0-16.195-7.558-16.195-16.881V16.88C26.317 7.558 33.567 0 42.512 0c8.944 0 16.195 7.558 16.195 16.881V66.12c0 9.323-7.25 16.881-16.195 16.881v-4.22c6.708 0 12.146-5.669 12.146-12.661Zm54.966.881V15.88h6.192V67h-6.192Zm17.805 0V28.84h5.544l.216 9.72-.72-.648c.48-2.256 1.32-4.104 2.52-5.544 1.2-1.488 2.64-2.592 4.32-3.312 1.728-.72 3.576-1.08 5.544-1.08 2.928 0 5.328.648 7.2 1.944 1.92 1.296 3.336 3.048 4.248 5.256.96 2.16 1.44 4.584 1.44 7.272V67h-6.048V44.176c0-2.352-.288-4.32-.864-5.904-.528-1.632-1.392-2.856-2.592-3.672-1.2-.864-2.76-1.296-4.68-1.296-2.928 0-5.352.936-7.272 2.808-1.872 1.824-2.808 4.512-2.808 8.064V67h-6.048Zm41.679 0V25.384c0-2.832.816-5.112 2.448-6.84 1.632-1.776 4.176-2.664 7.632-2.664h6.048v5.328h-5.616c-1.488 0-2.616.408-3.384 1.224-.72.816-1.08 1.944-1.08 3.384V67h-6.048Zm-5.184-32.832V28.84h20.808v5.328h-20.808ZM192.652 67V28.84h6.048V67h-6.048Zm-.144-44.136v-7.056h6.336v7.056h-6.336ZM209.487 67V28.84h5.544l.216 9.72-.72-.648c.48-2.256 1.32-4.104 2.52-5.544 1.2-1.488 2.64-2.592 4.32-3.312 1.728-.72 3.576-1.08 5.544-1.08 2.928 0 5.328.648 7.2 1.944 1.92 1.296 3.336 3.048 4.248 5.256.96 2.16 1.44 4.584 1.44 7.272V67h-6.048V44.176c0-2.352-.288-4.32-.864-5.904-.528-1.632-1.392-2.856-2.592-3.672-1.2-.864-2.76-1.296-4.68-1.296-2.928 0-5.352.936-7.272 2.808-1.872 1.824-2.808 4.512-2.808 8.064V67h-6.048Zm39.693 0V28.84h6.048V67h-6.048Zm-.144-44.136v-7.056h6.336v7.056h-6.336ZM276.403 67c-3.456 0-6.024-.792-7.704-2.376-1.632-1.584-2.448-4.056-2.448-7.416V19.912h6.048v37.152c0 1.728.384 2.928 1.152 3.6.768.672 1.944 1.008 3.528 1.008h5.472V67h-6.048Zm-15.768-32.832V28.84h21.816v5.328h-21.816Zm42.334 33.696c-3.6 0-6.72-.816-9.36-2.448-2.592-1.632-4.608-3.936-6.048-6.912-1.392-3.024-2.088-6.552-2.088-10.584s.696-7.536 2.088-10.512c1.44-2.976 3.432-5.28 5.976-6.912 2.592-1.68 5.64-2.52 9.144-2.52 3.312 0 6.24.792 8.784 2.376 2.544 1.536 4.512 3.792 5.904 6.768 1.44 2.976 2.16 6.6 2.16 10.872v1.8h-27.72c.24 4.08 1.32 7.152 3.24 9.216 1.968 2.064 4.608 3.096 7.92 3.096 2.496 0 4.536-.576 6.12-1.728 1.632-1.2 2.76-2.76 3.384-4.68l6.48.504c-1.008 3.408-2.928 6.216-5.76 8.424-2.784 2.16-6.192 3.24-10.224 3.24Zm-11.16-23.4h21.096c-.288-3.696-1.368-6.408-3.24-8.136-1.824-1.728-4.152-2.592-6.984-2.592-2.928 0-5.352.912-7.272 2.736-1.872 1.776-3.072 4.44-3.6 7.992Z"/></svg>

<?xml version="1.0" encoding="utf-8"?>
<svg xmlns="http://www.w3.org/2000/svg" viewBox="0 0 83 83.001" width="83px" height="83.001px">
    <path fill="#000000"
          d="M78.78 41.5c0-20.589-16.691-37.28-37.28-37.28-20.589 0-37.28 16.691-37.28 37.28 0 20.589 16.691 37.28 37.28 37.28V83C18.58 83 0 64.42 0 41.5S18.58 0 41.5 0 83 18.58 83 41.5 64.42 83 41.5 83v-4.22c20.589 0 37.28-16.691 37.28-37.28Z"
          transform="matrix(1, 0, 0, 1, 0, 1.4210854715202004e-14)"/>
    <path fill="#000000"
          d="M66.66 53.458V29.542C66.66 15.557 55.396 4.22 41.5 4.22S16.34 15.557 16.34 29.542v23.916c0 13.985 11.264 25.322 25.16 25.322V83c-15.958 0-28.942-12.817-29.344-28.78l-.01-.762V29.542C12.146 13.227 25.288 0 41.5 0s29.354 13.227 29.354 29.542v23.916C70.854 69.773 57.712 83 41.5 83v-4.22c13.896 0 25.16-11.337 25.16-25.322Z"
          transform="matrix(1, 0, 0, 1, 0, 1.4210854715202004e-14)"/>
    <path fill="#000000"
          d="M66.758 52.754V30.246C66.758 15.872 55.45 4.22 41.5 4.22S16.242 15.872 16.242 30.246v22.508c0 14.374 11.308 26.026 25.258 26.026V83c-16.212 0-29.354-13.541-29.354-30.246V30.246C12.146 13.542 25.288 0 41.5 0s29.354 13.541 29.354 30.246v22.508C70.854 69.46 57.712 83 41.5 83v-4.22c13.95 0 25.258-11.652 25.258-26.026Z"
          transform="matrix(1, 0, 0, 1, 0, 1.4210854715202004e-14)"/>
    <path fill="#000000"
          d="M 54.658 66.119 L 54.658 16.88 C 54.658 9.888 49.22 4.22 42.512 4.22 C 35.804 4.22 30.366 9.888 30.366 16.88 L 30.366 66.12 C 30.366 73.112 35.804 78.78 42.512 78.78 L 42.512 83 C 33.568 83 26.317 75.442 26.317 66.119 L 26.317 16.88 C 26.317 7.558 33.567 0 42.512 0 C 51.456 0 58.707 7.558 58.707 16.881 L 58.707 66.12 C 58.707 75.443 51.457 83.001 42.512 83.001 L 42.512 78.781 C 49.22 78.781 54.658 73.112 54.658 66.12 L 54.658 66.119 Z"
          transform="matrix(1, 0, 0, 1, 0, 1.4210854715202004e-14)"/>
</svg>
